X:39
T: Geistlicher Weckruf
N: A0396B
O: Europa, Mitteleuropa, Deutschland
N: Souterliedekens 1540 ad Ps. 68
R: Romanze, Ballade, Lied, religioeses Lied
M: 4/2
L: 1/2
K: G
G | GGAB | c2c2z
B | A2Gc2B | c2z
c | BBcc | d2d2z
c | BcdcA2 | G2z
G | AAdd | c2B2
A2 | G2=FGE2 | D2z
D | A2AABc | d2d2z
c | BAGBA2 | G3

